X:30
T:Old Traditional    [(5th) King's Set]
R:Reel
O:Scotland
M:2/2
C:Trad.-Ashley MacIsaac, John Allan Cameron, Buddy MacMaster
K:G
A|EA,A,B, C2 CE|DCB,D ECDB,|EA,A,B, C/2C/2C CE|DB,GB, (G,A,) A:|
B,|(G,A,)A,A EA,EA|GEDG B,G,G,B,|(G,A,)A,A EA,EA|GEDB, A,/2A,/2A A,B,|
G,A,A,A GAAE|GEDC B,DDA|EA,A,B, C/2C/2C (CE)|DB,GB, (G,A,) A,|\
B,|A,aab {ab}agea|gedg BAGB|Aaab ({ab}a)geg|dBgB A2 (AB)|
Aaab ({ab}a)geb|gedg BAGB|cBAB cdec|dBgB A2 A:||
